Educa/src/img/int-card05.svg

<svg width="364" height="147" viewBox="0 0 364 147" fill="none" xmlns="http://www.w3.org/2000/svg">
<rect x="0.294189" y="0.979248" width="363.519" height="145.75" rx="4.28678" fill="white"/>
<path d="M312.347 112.958H309.755V115.619H307.944V112.958H305.351V111.284H307.944V108.623H309.755V111.284H312.347V112.958ZM313.964 108.774V107.004H317.27V117.005H315.294V108.774H313.964ZM319.771 114.837C320.649 114.106 321.348 113.497 321.869 113.013C322.391 112.519 322.825 112.007 323.173 111.476C323.52 110.946 323.694 110.425 323.694 109.912C323.694 109.446 323.584 109.08 323.365 108.815C323.145 108.55 322.807 108.417 322.35 108.417C321.892 108.417 321.54 108.573 321.293 108.884C321.046 109.185 320.918 109.602 320.909 110.132H319.044C319.08 109.035 319.405 108.202 320.017 107.635C320.639 107.068 321.426 106.785 322.377 106.785C323.419 106.785 324.22 107.064 324.778 107.622C325.335 108.17 325.614 108.897 325.614 109.803C325.614 110.516 325.422 111.197 325.038 111.847C324.654 112.496 324.215 113.063 323.721 113.548C323.227 114.023 322.583 114.599 321.787 115.276H325.834V116.867H319.057V115.441L319.771 114.837ZM327.044 111.874C327.044 110.292 327.327 109.053 327.894 108.157C328.471 107.26 329.422 106.812 330.748 106.812C332.074 106.812 333.02 107.26 333.587 108.157C334.163 109.053 334.451 110.292 334.451 111.874C334.451 113.465 334.163 114.714 333.587 115.619C333.02 116.524 332.074 116.977 330.748 116.977C329.422 116.977 328.471 116.524 327.894 115.619C327.327 114.714 327.044 113.465 327.044 111.874ZM332.558 111.874C332.558 111.197 332.513 110.63 332.421 110.173C332.339 109.707 332.165 109.327 331.9 109.035C331.644 108.742 331.26 108.596 330.748 108.596C330.236 108.596 329.847 108.742 329.582 109.035C329.326 109.327 329.152 109.707 329.06 110.173C328.978 110.63 328.937 111.197 328.937 111.874C328.937 112.569 328.978 113.154 329.06 113.63C329.143 114.096 329.317 114.476 329.582 114.769C329.847 115.052 330.236 115.194 330.748 115.194C331.26 115.194 331.649 115.052 331.914 114.769C332.179 114.476 332.353 114.096 332.435 113.63C332.517 113.154 332.558 112.569 332.558 111.874Z" fill="black"/>
<rect x="304.227" y="97.0029" width="15.4324" height="2.57207" fill="#FFC700"/>
<rect x="304.227" y="54.1353" width="15.4324" height="2.57207" fill="#FF5600"/>
<path d="M305.557 71.9693C306.435 71.2377 307.135 70.6296 307.656 70.1449C308.177 69.651 308.612 69.1389 308.959 68.6085C309.307 68.0781 309.48 67.5568 309.48 67.0447C309.48 66.5783 309.371 66.2125 309.151 65.9473C308.932 65.6821 308.593 65.5494 308.136 65.5494C307.679 65.5494 307.327 65.7049 307.08 66.0159C306.833 66.3176 306.705 66.7337 306.696 67.2642H304.83C304.867 66.1667 305.191 65.3345 305.804 64.7675C306.426 64.2005 307.213 63.917 308.164 63.917C309.206 63.917 310.006 64.196 310.564 64.7538C311.122 65.3025 311.401 66.0296 311.401 66.9349C311.401 67.6483 311.209 68.3296 310.825 68.9789C310.441 69.6282 310.002 70.1952 309.508 70.6799C309.014 71.1554 308.369 71.7316 307.574 72.4083H311.62V73.9995H304.844V72.5729L305.557 71.9693ZM319.552 65.7964H315.108V68.1421C315.3 67.9043 315.574 67.7123 315.931 67.5659C316.287 67.4105 316.667 67.3327 317.069 67.3327C317.801 67.3327 318.4 67.4928 318.866 67.8129C319.333 68.1329 319.671 68.5445 319.881 69.0475C320.092 69.5413 320.197 70.0717 320.197 70.6387C320.197 71.6904 319.895 72.5363 319.292 73.1765C318.697 73.8166 317.847 74.1367 316.74 74.1367C315.698 74.1367 314.865 73.8761 314.244 73.3548C313.622 72.8335 313.27 72.1522 313.187 71.3109H315.053C315.135 71.6767 315.318 71.9693 315.602 72.1888C315.894 72.4083 316.265 72.518 316.713 72.518C317.252 72.518 317.659 72.3488 317.934 72.0105C318.208 71.6721 318.345 71.224 318.345 70.6661C318.345 70.0991 318.203 69.6693 317.92 69.3767C317.646 69.0749 317.239 68.924 316.699 68.924C316.315 68.924 315.995 69.02 315.739 69.2121C315.483 69.4041 315.3 69.6602 315.19 69.9803H313.352V64.1091H319.552V65.7964ZM323.977 72.1202L322.372 75.9749H321.137L322.029 72.1202H323.977ZM325.169 66.7703C325.215 65.8558 325.535 65.1516 326.129 64.6578C326.733 64.1548 327.524 63.9033 328.503 63.9033C329.17 63.9033 329.742 64.0222 330.217 64.26C330.693 64.4886 331.049 64.8041 331.287 65.2065C331.534 65.5997 331.658 66.0479 331.658 66.5508C331.658 67.127 331.507 67.6162 331.205 68.0186C330.912 68.4119 330.56 68.6771 330.149 68.8143V68.8691C330.679 69.0337 331.091 69.3264 331.383 69.7471C331.685 70.1677 331.836 70.7073 331.836 71.3657C331.836 71.9145 331.708 72.4037 331.452 72.8335C331.205 73.2634 330.835 73.6017 330.341 73.8486C329.856 74.0864 329.271 74.2053 328.585 74.2053C327.551 74.2053 326.71 73.9447 326.061 73.4234C325.411 72.9021 325.069 72.1339 325.032 71.1188H326.898C326.916 71.5669 327.067 71.9282 327.35 72.2025C327.643 72.4677 328.041 72.6003 328.544 72.6003C329.01 72.6003 329.367 72.4723 329.614 72.2162C329.87 71.951 329.998 71.6127 329.998 71.2011C329.998 70.6524 329.824 70.2592 329.476 70.0214C329.129 69.7836 328.589 69.6648 327.858 69.6648H327.46V68.0872H327.858C329.156 68.0872 329.806 67.6528 329.806 66.784C329.806 66.3908 329.687 66.0844 329.449 65.865C329.22 65.6455 328.887 65.5357 328.448 65.5357C328.018 65.5357 327.684 65.6546 327.446 65.8924C327.218 66.121 327.085 66.4137 327.048 66.7703H325.169ZM338.978 74.1367L335.494 69.8705V74.1367H333.573V64.5618H335.494V68.8554L338.978 64.5618H341.296L337.345 69.3081L341.406 74.1367H338.978Z" fill="black"/>
<path d="M20.8707 35.7021H276.791" stroke="#ECECF9" stroke-width="0.857355" stroke-dasharray="2.83 2.83"/>
<path d="M20.8707 68.2816H276.791" stroke="#ECECF9" stroke-width="0.857355" stroke-dasharray="2.83 2.83"/>
<path d="M20.8707 98.2891H276.791" stroke="#ECECF9" stroke-width="0.857355" stroke-dasharray="2.83 2.83"/>
<rect x="316.23" y="18.1263" width="27.4354" height="2.57207" fill="#ECEFF6"/>
<rect x="29.0156" y="87.5721" width="4.28678" height="42.8678" fill="#1F1F26"/>
<rect x="38.4465" y="94.431" width="4.28678" height="36.0089" fill="#FFC700"/>
<rect x="65.0245" y="60.1367" width="4.28678" height="70.3031" fill="#1F1F26"/>
<rect x="74.4554" y="65.2808" width="4.28678" height="65.159" fill="#FFC700"/>
<rect x="101.891" y="71.2823" width="4.28678" height="59.1575" fill="#1F1F26"/>
<rect x="111.322" y="76.4266" width="4.28678" height="54.0134" fill="#FFC700"/>
<rect x="138.757" y="76.4265" width="4.28678" height="54.0134" fill="#1F1F26"/>
<rect x="148.188" y="81.5706" width="4.28678" height="48.8692" fill="#FFC700"/>
<rect x="174.766" y="65.2809" width="4.28678" height="65.159" fill="#1F1F26"/>
<rect x="184.197" y="71.2825" width="4.28678" height="59.1575" fill="#FFC700"/>
<rect x="210.775" y="48.1338" width="4.28678" height="82.3061" fill="#1F1F26"/>
<rect x="220.206" y="54.1352" width="4.28678" height="76.3046" fill="#FFC700"/>
<rect x="247.641" y="42.1323" width="4.28678" height="88.3076" fill="#1F1F26"/>
<rect x="257.072" y="48.1337" width="4.28678" height="82.3061" fill="#FFC700"/>
</svg>

<svg xmlns="http://www.w3.org/2000/svg" width="364" height="147" fill="none" xmlns:v="https://vecta.io/nano"><style><![CDATA[.B{fill:#ffc700}.C{fill:#1f1f26}]]></style><rect x=".294" y=".979" width="363.519" height="145.75" rx="4.287" fill="#fff"/><path d="M312.347 112.958h-2.592v2.661h-1.811v-2.661h-2.593v-1.674h2.593v-2.661h1.811v2.661h2.592v1.674zm1.617-4.184v-1.77h3.306v10.001h-1.976v-8.231h-1.33zm5.807 6.063l2.098-1.824c.522-.494.956-1.006 1.304-1.537s.521-1.051.521-1.564c0-.466-.11-.832-.329-1.097s-.558-.398-1.015-.398-.81.156-1.057.467c-.247.301-.375.718-.384 1.248h-1.865c.036-1.097.361-1.93.973-2.497.622-.567 1.409-.85 2.36-.85 1.042 0 1.843.279 2.401.837.557.548.836 1.275.836 2.181 0 .713-.192 1.394-.576 2.044s-.823 1.216-1.317 1.701l-1.934 1.728h4.047v1.591h-6.777v-1.426l.714-.604zm7.273-2.963c0-1.582.283-2.821.85-3.717.577-.897 1.528-1.345 2.854-1.345s2.272.448 2.839 1.345c.576.896.864 2.135.864 3.717 0 1.591-.288 2.84-.864 3.745-.567.905-1.513 1.358-2.839 1.358s-2.277-.453-2.854-1.358c-.567-.905-.85-2.154-.85-3.745zm5.514 0c0-.677-.045-1.244-.137-1.701-.082-.466-.256-.846-.521-1.138-.256-.293-.64-.439-1.152-.439s-.901.146-1.166.439c-.256.292-.43.672-.522 1.138-.082.457-.123 1.024-.123 1.701 0 .695.041 1.28.123 1.756.083.466.257.846.522 1.139.265.283.654.425 1.166.425s.901-.142 1.166-.425c.265-.293.439-.673.521-1.139.082-.476.123-1.061.123-1.756z" fill="#000"/><path d="M304.227 97.003h15.432v2.572h-15.432z" class="B"/><path fill="#ff5600" d="M304.227 54.135h15.432v2.572h-15.432z"/><path d="M305.557 71.969l2.099-1.824c.521-.494.956-1.006 1.303-1.536s.521-1.052.521-1.564c0-.466-.109-.832-.329-1.097s-.558-.398-1.015-.398-.809.155-1.056.466c-.247.302-.375.718-.384 1.248h-1.866c.037-1.097.361-1.93.974-2.497.622-.567 1.409-.85 2.36-.85 1.042 0 1.842.279 2.4.837.558.549.837 1.276.837 2.181 0 .713-.192 1.395-.576 2.044s-.823 1.216-1.317 1.701l-1.934 1.728h4.046V74h-6.776v-1.427l.713-.604zm13.995-6.173h-4.444v2.346c.192-.238.466-.43.823-.576.356-.155.736-.233 1.138-.233.732 0 1.331.16 1.797.48s.805.732 1.015 1.235c.211.494.316 1.024.316 1.591 0 1.052-.302 1.898-.905 2.538-.595.64-1.445.96-2.552.96-1.042 0-1.875-.261-2.496-.782s-.974-1.203-1.057-2.044h1.866c.082.366.265.658.549.878.292.219.663.329 1.111.329.539 0 .946-.169 1.221-.508s.411-.786.411-1.344c0-.567-.142-.997-.425-1.289-.274-.302-.681-.453-1.221-.453-.384 0-.704.096-.96.288s-.439.448-.549.768h-1.838v-5.871h6.2v1.687zm4.425 6.324l-1.605 3.855h-1.235l.892-3.855h1.948zm1.192-5.35c.046-.915.366-1.619.96-2.113.604-.503 1.395-.754 2.374-.754.667 0 1.239.119 1.714.357.476.229.832.544 1.07.947.247.393.371.841.371 1.344 0 .576-.151 1.065-.453 1.468-.293.393-.645.658-1.056.796v.055c.53.165.942.457 1.234.878.302.421.453.96.453 1.619 0 .549-.128 1.038-.384 1.468-.247.43-.617.768-1.111 1.015-.485.238-1.07.357-1.756.357-1.034 0-1.875-.261-2.524-.782s-.992-1.29-1.029-2.305h1.866c.018.448.169.809.452 1.084.293.265.691.398 1.194.398.466 0 .823-.128 1.07-.384.256-.265.384-.603.384-1.015 0-.549-.174-.942-.522-1.18s-.887-.357-1.618-.357h-.398v-1.578h.398c1.298 0 1.948-.434 1.948-1.303 0-.393-.119-.7-.357-.919-.229-.219-.562-.329-1.001-.329-.43 0-.764.119-1.002.357-.228.229-.361.521-.398.878h-1.879zm13.809 7.366l-3.484-4.266v4.266h-1.921v-9.575h1.921v4.294l3.484-4.294h2.318l-3.951 4.746 4.061 4.829h-2.428z" fill="#000"/><path d="M20.871 35.702h255.92m-255.92 32.58h255.92M20.871 98.289h255.92" stroke="#ececf9" stroke-width=".857" stroke-dasharray="2.83 2.83"/><path fill="#eceff6" d="M316.23 18.126h27.435v2.572H316.23z"/><path d="M29.016 87.572h4.287v42.868h-4.287z" class="C"/><path d="M38.446 94.431h4.287v36.009h-4.287z" class="B"/><path d="M65.024 60.137h4.287v70.303h-4.287z" class="C"/><path d="M74.455 65.281h4.287v65.159h-4.287z" class="B"/><path d="M101.891 71.282h4.287v59.158h-4.287z" class="C"/><path d="M111.322 76.427h4.287v54.013h-4.287z" class="B"/><path d="M138.757 76.426h4.287v54.013h-4.287z" class="C"/><path d="M148.188 81.571h4.287v48.869h-4.287z" class="B"/><path d="M174.766 65.281h4.287v65.159h-4.287z" class="C"/><path d="M184.197 71.283h4.287v59.158h-4.287z" class="B"/><path d="M210.775 48.134h4.287v82.306h-4.287z" class="C"/><path d="M220.206 54.135h4.287v76.305h-4.287z" class="B"/><path d="M247.641 42.132h4.287v88.308h-4.287z" class="C"/><path d="M257.072 48.134h4.287v82.306h-4.287z" class="B"/></svg>
